svg/file_powerpoint_box.svg

<svg xmlns="http://www.w3.org/2000/svg" viewBox="0 0 24 24"><path d="M9.8 13.4h2.5c1.5 0 2.16-.28 2.8-.82.64-.55.9-1.33.9-2.35 0-.97-.25-1.73-.9-2.35-.65-.59-1.27-.88-2.8-.88H8v10h1.8zM19 3a2 2 0 0 1 2 2v14a2 2 0 0 1-2 2H5a2 2 0 0 1-2-2V5a2 2 0 0 1 2-2zm-9.2 9V8.4h2.3c.66 0 1.17.25 1.5.6s.5.72.5 1.24c0 .56-.18.95-.5 1.26s-.7.5-1.38.5z"/></svg>

<?xml version="1.0" encoding="UTF-8"?><!DOCTYPE svg PUBLIC "-//W3C//DTD SVG 1.1//EN" "http://www.w3.org/Graphics/SVG/1.1/DTD/svg11.dtd"><svg xmlns="http://www.w3.org/2000/svg" xmlns:xlink="http://www.w3.org/1999/xlink" version="1.1" id="mdi-file-powerpoint-box" width="24" height="24" viewBox="0 0 24 24"><path d="M9.8,13.4H12.3C13.8,13.4 14.46,13.12 15.1,12.58C15.74,12.03 16,11.25 16,10.23C16,9.26 15.75,8.5 15.1,7.88C14.45,7.29 13.83,7 12.3,7H8V17H9.8V13.4M19,3A2,2 0 0,1 21,5V19A2,2 0 0,1 19,21H5A2,2 0 0,1 3,19V5C3,3.89 3.9,3 5,3H19M9.8,12V8.4H12.1C12.76,8.4 13.27,8.65 13.6,9C13.93,9.35 14.1,9.72 14.1,10.24C14.1,10.8 13.92,11.19 13.6,11.5C13.28,11.81 12.9,12 12.22,12H9.8Z" /></svg>
